<?xml version="1.0" encoding="UTF-8"?>
<map version="1.10" tiledversion="1.11.2" orientation="orthogonal" renderorder="right-down" compressionlevel="0" width="16" height="16" tilewidth="16" tileheight="16" infinite="0" backgroundcolor="#696a79" nextlayerid="6" nextobjectid="9">
 <tileset firstgid="1" name="TilesetField" tilewidth="16" tileheight="16" tilecount="0" columns="5" objectalignment="topleft">
  <image source="../tilesets/TilesetField.png" width="80" height="240"/>
 </tileset>
 <tileset firstgid="1" name="TilesetFloor" tilewidth="16" tileheight="16" tilecount="0" columns="22" objectalignment="topleft">
  <image source="../tilesets/TilesetFloor.png" width="352" height="417"/>
 </tileset>
 <tileset firstgid="266" name="TilesetVillageAbandoned" tilewidth="16" tileheight="16" tilecount="0" columns="20" objectalignment="topleft">
  <image source="../tilesets/TilesetVillageAbandoned.png" width="320" height="192"/>
 </tileset>
 <tileset firstgid="266" name="TilesetHouse" tilewidth="16" tileheight="16" tilecount="0" columns="33" objectalignment="topleft">
  <image source="../tilesets/TilesetHouse.png" width="528" height="368"/>
 </tileset>
 <tileset firstgid="1019" name="TilesetWater" tilewidth="16" tileheight="16" tilecount="0" columns="28" objectalignment="topleft">
  <image source="../tilesets/TilesetWater.png" width="448" height="272"/>
 </tileset>
 <tileset firstgid="1246" name="TilesetNature" tilewidth="16" tileheight="16" tilecount="0" columns="24" objectalignment="topleft">
  <image source="../tilesets/TilesetNature.png" width="384" height="336"/>
 </tileset>
 <layer id="1" name="Floor" width="16" height="16">
  <data encoding="csv">
265,265,265,265,265,265,155,156,156,156,156,156,156,156,156,156,
265,265,265,265,265,265,177,178,178,178,178,178,178,178,178,178,
265,265,265,265,265,265,177,178,178,178,178,178,178,178,178,178,
265,265,265,265,265,265,177,178,179,265,265,265,265,265,265,265,
265,265,265,265,265,265,177,178,179,265,265,265,265,265,265,265,
265,265,265,265,265,265,177,178,179,265,265,265,265,265,265,265,
156,156,156,156,156,156,178,178,178,156,156,156,156,156,156,156,
178,178,178,178,178,178,178,178,178,178,178,178,178,178,178,178,
200,200,200,200,200,200,178,178,178,200,200,200,200,200,200,200,
265,265,265,265,265,265,177,178,179,265,265,265,265,265,265,265,
265,265,265,265,265,265,177,178,179,265,265,265,265,265,265,265,
265,265,265,265,265,265,177,178,179,265,265,265,265,265,265,265,
265,265,265,265,265,265,177,178,179,265,265,265,265,265,265,265,
265,265,265,265,265,265,177,178,179,265,265,155,156,157,265,265,
156,156,156,156,156,156,178,178,178,156,156,178,178,179,265,265,
178,178,178,178,178,178,178,178,178,200,200,200,200,201,265,265
</data>
 </layer>
 <layer id="2" name="Water" width="16" height="16">
  <data encoding="csv">
0,0,0,0,0,0,0,0,0,0,0,0,0,0,0,0,
0,1187,1188,1188,1189,0,0,0,0,0,0,0,0,0,0,0,
0,1215,1216,1216,1217,0,0,0,0,0,0,0,0,0,0,0,
0,1215,1216,1216,1217,0,0,0,0,0,0,0,0,0,0,0,
0,1243,1244,1244,1245,0,0,0,0,0,0,0,0,0,0,0,
0,0,0,0,0,0,0,0,0,0,0,0,0,0,0,0,
0,0,0,0,0,0,0,0,0,0,0,0,0,0,0,0,
0,0,0,0,0,0,0,0,0,0,0,0,0,0,0,0,
0,0,0,0,0,0,0,0,0,0,0,0,0,0,0,0,
0,0,0,0,0,0,0,0,0,0,0,0,0,0,0,0,
0,0,0,0,0,0,0,0,0,0,0,0,0,0,0,0,
0,0,0,0,0,0,0,0,0,0,0,0,0,0,0,0,
0,0,0,0,0,0,0,0,0,0,0,0,0,0,0,0,
0,0,0,0,0,0,0,0,0,0,0,0,0,0,0,0,
0,0,0,0,0,0,0,0,0,0,0,0,0,0,0,0,
0,0,0,0,0,0,0,0,0,0,0,0,0,0,0,0
</data>
 </layer>
 <layer id="3" name="Trees" width="16" height="16">
  <data encoding="csv">
0,1495,1495,1495,1570,1495,0,0,0,0,0,0,0,0,0,0,
1495,0,0,0,0,1672,0,0,0,0,0,0,0,0,0,0,
1495,0,0,0,0,1594,0,0,1714,1714,1681,1682,1683,1681,1682,1683,
1495,0,0,0,0,1618,0,0,1714,1671,1705,1706,1707,1705,1706,1707,
1246,1247,1246,1247,1246,1247,0,0,1714,1671,1495,1730,1495,1495,1730,1495,
1270,1271,1270,1271,1270,1271,0,0,0,1494,1672,1495,1671,1671,1495,1495,
0,0,0,0,0,0,0,0,0,0,0,0,0,0,0,0,
0,0,0,0,0,0,0,0,0,0,0,0,0,0,0,0,
1444,1445,1444,1445,1722,1722,0,0,0,1681,1682,1683,0,0,0,0,
1468,1469,1468,1469,1495,1672,0,0,0,1705,1706,1707,1495,0,0,1495,
1495,1495,1495,1495,1444,1445,0,0,0,1729,1730,1731,0,0,0,1495,
1672,1445,0,0,1468,1469,0,0,0,1262,1263,0,0,0,0,1495,
1495,1722,0,0,1495,1495,0,0,0,1286,1287,0,0,0,0,1495,
1495,1495,1694,1495,1495,1495,0,0,0,1495,1495,0,0,0,1246,1247,
0,0,0,0,0,0,0,0,0,0,0,0,0,0,1270,1271,
0,0,0,0,0,0,0,0,0,0,0,0,0,0,1495,1495
</data>
 </layer>
 <layer id="4" name="House" width="16" height="16">
  <data encoding="csv">
0,0,0,0,0,0,0,0,0,0,0,0,0,0,0,0,
0,0,0,0,0,0,0,0,0,0,0,0,0,0,0,0,
0,0,0,0,0,0,0,0,0,0,0,0,0,0,0,0,
0,0,0,0,0,0,0,0,0,0,0,0,0,0,0,0,
0,0,0,0,0,0,0,0,0,0,0,0,0,0,0,0,
0,0,0,0,0,0,0,0,0,0,0,0,0,0,0,0,
0,0,0,0,0,0,0,0,0,0,0,0,0,0,0,0,
0,0,0,0,0,0,0,0,0,0,0,0,0,0,0,0,
0,0,0,0,1018,1018,0,0,0,0,0,0,0,0,0,0,
0,0,0,0,1018,1018,0,0,0,0,0,295,296,297,298,0,
0,270,271,272,273,0,0,0,0,0,0,328,329,330,331,0,
0,303,304,305,306,0,0,0,0,0,0,361,362,363,364,0,
0,336,337,338,339,0,0,0,0,0,0,394,395,396,397,0,
0,0,0,0,0,0,0,0,0,0,0,0,0,0,0,0,
0,0,0,0,0,0,0,0,0,0,0,0,0,0,0,0,
0,0,0,0,0,0,0,0,0,0,0,0,0,0,0,0
</data>
 </layer>
 <objectgroup id="5" name="Entities">
  <object id="1" name="Level_0" type="Portal" x="-24" y="96" width="32" height="32">
   <properties>
    <property name="__anchorX" type="int" value="-8"/>
    <property name="__anchorY" type="int" value="128"/>
    <property name="__cx" type="int" value="0"/>
    <property name="__cy" type="int" value="7"/>
   </properties>
  </object>
  <object id="2" name="Level_0" type="Portal" x="-8" y="224" width="32" height="32">
   <properties>
    <property name="__anchorX" type="int" value="8"/>
    <property name="__anchorY" type="int" value="256"/>
    <property name="__cx" type="int" value="0"/>
    <property name="__cy" type="int" value="15"/>
   </properties>
  </object>
  <object id="3" name="Level_1" type="Portal" x="232" y="0" width="32" height="32">
   <properties>
    <property name="__anchorX" type="int" value="248"/>
    <property name="__anchorY" type="int" value="32"/>
    <property name="__cx" type="int" value="15"/>
    <property name="__cy" type="int" value="1"/>
   </properties>
  </object>
  <object id="4" name="Level_1" type="Portal" x="232" y="96" width="32" height="32">
   <properties>
    <property name="__anchorX" type="int" value="248"/>
    <property name="__anchorY" type="int" value="128"/>
    <property name="__cx" type="int" value="15"/>
    <property name="__cy" type="int" value="7"/>
   </properties>
  </object>
  <object id="5" name="Spawn_point" type="Spawn_point" x="104" y="96" width="32" height="32">
   <properties>
    <property name="__anchorX" type="int" value="120"/>
    <property name="__anchorY" type="int" value="128"/>
    <property name="__cx" type="int" value="7"/>
    <property name="__cy" type="int" value="7"/>
   </properties>
  </object>
  <object id="6" name="Level_4" type="Portal" x="102.667" y="239.333" width="32" height="32">
   <properties>
    <property name="__anchorX" type="int" value="120"/>
    <property name="__anchorY" type="int" value="288"/>
    <property name="__cx" type="int" value="7"/>
    <property name="__cy" type="int" value="17"/>
   </properties>
  </object>
 </objectgroup>
</map>
