<?xml version="1.0" encoding="UTF-8"?>
<map version="1.10" tiledversion="1.11.0" orientation="orthogonal" renderorder="right-down" compressionlevel="0" width="16" height="16" tilewidth="16" tileheight="16" infinite="0" backgroundcolor="#696a79" nextlayerid="6" nextobjectid="10">
 <tileset firstgid="1" name="TilesetField" tilewidth="16" tileheight="16" tilecount="75" columns="5" objectalignment="topleft">
  <image source="../tilesets/TilesetField.png" width="80" height="240"/>
 </tileset>
 <tileset firstgid="76" name="TilesetFloor" tilewidth="16" tileheight="16" tilecount="572" columns="22" objectalignment="topleft">
  <image source="../tilesets/TilesetFloor.png" width="352" height="417"/>
 </tileset>
 <tileset firstgid="648" name="TilesetVillageAbandoned" tilewidth="16" tileheight="16" tilecount="240" columns="20" objectalignment="topleft">
  <image source="../tilesets/TilesetVillageAbandoned.png" width="320" height="192"/>
 </tileset>
 <tileset firstgid="888" name="TilesetHouse" tilewidth="16" tileheight="16" tilecount="759" columns="33" objectalignment="topleft">
  <image source="../tilesets/TilesetHouse.png" width="528" height="368"/>
 </tileset>
 <tileset firstgid="1647" name="TilesetWater" tilewidth="16" tileheight="16" tilecount="476" columns="28" objectalignment="topleft">
  <image source="../tilesets/TilesetWater.png" width="448" height="272"/>
 </tileset>
 <tileset firstgid="2123" name="TilesetNature" tilewidth="16" tileheight="16" tilecount="504" columns="24" objectalignment="topleft">
  <image source="../tilesets/TilesetNature.png" width="384" height="336"/>
 </tileset>
 <layer id="1" name="Floor" width="16" height="16">
  <data encoding="csv">
231,231,231,231,231,231,231,231,231,231,231,231,231,231,231,232,
253,253,253,253,253,253,253,253,253,253,253,253,253,253,253,254,
275,275,275,275,275,275,253,253,253,275,275,275,275,275,275,276,
340,340,340,340,340,340,252,253,254,340,340,340,340,340,340,340,
340,340,340,340,340,340,252,253,254,340,340,340,340,340,340,340,
340,340,340,340,340,340,252,253,254,340,340,340,340,340,340,340,
231,231,231,231,231,231,253,253,253,231,231,231,231,231,231,232,
253,253,253,253,253,253,253,253,253,253,253,253,253,253,253,254,
253,253,253,275,275,275,275,275,275,275,275,275,275,253,253,254,
252,253,254,340,340,340,340,340,340,340,340,340,340,252,253,254,
252,253,254,340,340,340,340,340,340,340,340,340,340,252,253,254,
252,253,254,340,340,340,340,340,340,340,340,340,340,252,253,254,
252,253,254,340,340,340,340,340,340,340,340,340,340,252,253,254,
252,253,254,340,340,340,340,340,340,340,340,340,340,252,253,254,
252,253,254,340,340,340,340,340,340,340,340,340,340,252,253,254,
252,253,254,340,340,340,340,340,340,340,340,340,340,252,253,254
</data>
 </layer>
 <layer id="2" name="Water" width="16" height="16">
  <data encoding="csv">
0,0,0,0,0,0,0,0,0,0,0,0,0,0,0,0,
0,0,0,0,0,0,0,0,0,0,0,0,0,0,0,0,
0,0,0,0,0,0,0,0,0,0,0,0,0,0,0,0,
0,0,0,0,0,0,0,0,0,0,0,0,0,0,0,0,
0,0,0,0,0,0,0,0,0,0,0,0,0,0,0,0,
0,0,0,0,0,0,0,0,0,0,0,0,0,0,0,0,
0,0,0,0,0,0,0,0,0,0,0,0,0,0,0,0,
0,0,0,0,0,0,0,0,0,0,0,0,0,0,0,0,
0,0,0,0,0,0,0,0,0,0,0,0,0,0,0,0,
0,0,0,0,0,0,0,0,0,0,0,2112,0,0,0,0,
0,0,0,0,2112,2112,2112,2112,2112,2112,2112,2112,0,0,0,0,
0,0,0,0,2112,2112,0,0,0,0,2112,2112,0,0,0,0,
0,0,0,0,2112,2112,0,0,0,0,2112,2112,0,0,0,0,
0,0,0,0,2112,2112,0,0,0,0,2112,2112,0,0,0,0,
0,0,0,0,2112,0,0,0,0,0,2112,2112,0,0,0,0,
0,0,0,0,2112,0,0,0,0,0,0,2112,0,0,0,0
</data>
 </layer>
 <layer id="3" name="Trees" width="16" height="16">
  <data encoding="csv">
0,0,0,0,0,0,0,0,0,0,0,0,0,0,0,0,
0,0,0,0,0,0,0,0,0,0,0,0,0,0,0,0,
2558,2559,2560,2558,2559,2560,0,0,0,2618,2558,2559,2560,2558,2559,2560,
2582,2583,2584,2582,2583,2584,0,0,0,2372,2582,2583,2584,2582,2583,2584,
2372,2607,2372,2372,2607,2349,0,0,0,2372,2372,2607,2372,2372,2607,2372,
2548,2372,2372,2549,2372,2372,0,0,0,2371,2372,2372,2372,2372,2372,2372,
0,0,0,0,0,0,0,0,0,0,0,0,0,0,0,0,
0,0,0,0,0,0,0,0,0,0,0,0,0,0,0,0,
0,0,0,0,0,0,0,0,0,0,0,0,0,0,0,0,
0,0,0,2123,2124,2372,2372,2372,2372,2372,2372,2123,2124,0,0,0,
0,0,0,2147,2148,2372,2372,2372,2372,2372,2372,2147,2148,0,0,0,
0,0,0,2123,2124,2372,2372,2372,2372,2372,2372,2123,2124,0,0,0,
0,0,0,2147,2148,2372,2372,2372,2372,2372,2372,2147,2148,0,0,0,
0,0,0,2123,2124,2372,2372,2372,2372,2372,2372,2123,2124,0,0,0,
0,0,0,2147,2148,2372,2372,2372,2372,2372,2372,2147,2148,0,0,0,
0,0,0,2123,2124,2123,2124,2123,2124,2123,2124,2123,2124,0,0,0
</data>
 </layer>
 <layer id="4" name="House" width="16" height="16">
  <data encoding="csv">
0,0,0,0,0,0,0,0,0,0,0,0,0,0,0,0,
0,0,0,0,0,0,0,0,0,0,0,0,0,0,0,0,
0,0,0,0,0,0,0,0,0,0,0,0,0,0,0,0,
0,0,0,0,0,0,0,0,0,0,0,0,0,0,0,0,
0,0,0,0,0,0,0,0,0,0,0,0,0,0,0,0,
0,0,0,0,0,0,0,0,0,0,0,0,0,0,0,0,
0,0,0,0,0,0,0,0,0,0,0,0,0,0,0,0,
0,0,0,0,0,0,0,0,0,0,0,0,0,0,0,0,
0,0,0,0,0,0,0,0,0,0,0,0,0,0,0,0,
0,0,0,0,0,0,0,0,0,0,0,0,0,1126,0,0,
0,0,0,0,0,0,0,0,0,0,0,0,0,0,0,0,
0,0,0,0,0,0,0,1516,1517,0,0,0,0,0,0,0,
0,0,0,0,0,0,0,1549,1550,0,0,0,0,0,0,0,
0,0,0,0,0,0,0,1582,1583,0,0,0,0,0,0,0,
0,0,0,0,0,0,0,0,0,0,0,0,0,0,0,0,
0,0,0,0,0,0,0,0,0,0,0,0,0,0,0,0
</data>
 </layer>
 <objectgroup id="5" name="Entities">
  <object id="1" name="Level_5" type="Portal" x="0.0102142" y="240.747" width="47.9796" height="13.8414">
   <properties>
    <property name="__anchorX" type="int" value="24"/>
    <property name="__anchorY" type="int" value="288"/>
    <property name="__cx" type="int" value="1"/>
    <property name="__cy" type="int" value="17"/>
    <property name="link" type="int" value="1"/>
   </properties>
  </object>
  <object id="2" name="Level_5" type="Portal" x="205.105" y="240.747" width="49.4323" height="13.1151">
   <properties>
    <property name="__anchorX" type="int" value="232"/>
    <property name="__anchorY" type="int" value="288"/>
    <property name="__cx" type="int" value="14"/>
    <property name="__cy" type="int" value="17"/>
    <property name="link" type="int" value="2"/>
   </properties>
  </object>
  <object id="3" name="Level_2" type="Portal" x="-2.91559" y="95.2737" width="13.1151" height="45.8005">
   <properties>
    <property name="__anchorX" type="int" value="8"/>
    <property name="__anchorY" type="int" value="128"/>
    <property name="__cx" type="int" value="0"/>
    <property name="__cy" type="int" value="7"/>
    <property name="link" type="int" value="2"/>
   </properties>
  </object>
  <object id="4" name="Level_2" type="Spawn_point" x="18.8543" y="102.415" width="15.2941" height="32">
   <properties>
    <property name="__anchorX" type="int" value="-8"/>
    <property name="__anchorY" type="int" value="32"/>
    <property name="__cx" type="int" value="0"/>
    <property name="__cy" type="int" value="1"/>
    <property name="link" type="int" value="2"/>
   </properties>
  </object>
  <object id="5" name="Spawn_point" type="Spawn_point" x="104" y="96" width="32" height="32">
   <properties>
    <property name="__anchorX" type="int" value="120"/>
    <property name="__anchorY" type="int" value="128"/>
    <property name="__cx" type="int" value="7"/>
    <property name="__cy" type="int" value="7"/>
   </properties>
  </object>
  <object id="6" name="Level_2" type="Portal" x="-1.8363" y="-1.47312" width="15.2941" height="32">
   <properties>
    <property name="__anchorX" type="int" value="-8"/>
    <property name="__anchorY" type="int" value="32"/>
    <property name="__cx" type="int" value="0"/>
    <property name="__cy" type="int" value="1"/>
    <property name="link" type="int" value="1"/>
   </properties>
  </object>
  <object id="7" name="Level_2" type="Spawn_point" x="20.6804" y="-2.19946" width="15.2941" height="32">
   <properties>
    <property name="__anchorX" type="int" value="-8"/>
    <property name="__anchorY" type="int" value="32"/>
    <property name="__cx" type="int" value="0"/>
    <property name="__cy" type="int" value="1"/>
    <property name="link" type="int" value="1"/>
   </properties>
  </object>
  <object id="8" name="Level_5" type="Spawn_point" x="0.705902" y="218.246" width="47.9796" height="13.8414">
   <properties>
    <property name="__anchorX" type="int" value="24"/>
    <property name="__anchorY" type="int" value="288"/>
    <property name="__cx" type="int" value="1"/>
    <property name="__cy" type="int" value="17"/>
    <property name="link" type="int" value="1"/>
   </properties>
  </object>
  <object id="9" name="Level_5" type="Spawn_point" x="206.988" y="224.056" width="47.9796" height="13.8414">
   <properties>
    <property name="__anchorX" type="int" value="24"/>
    <property name="__anchorY" type="int" value="288"/>
    <property name="__cx" type="int" value="1"/>
    <property name="__cy" type="int" value="17"/>
    <property name="link" type="int" value="2"/>
   </properties>
  </object>
 </objectgroup>
</map>
