<?xml version="1.0" encoding="UTF-8"?>
<map version="1.10" tiledversion="1.11.2" orientation="orthogonal" renderorder="right-down" compressionlevel="0" width="16" height="16" tilewidth="16" tileheight="16" infinite="0" backgroundcolor="#696a79" nextlayerid="6" nextobjectid="4">
 <tileset firstgid="1" name="TilesetField" tilewidth="16" tileheight="16" tilecount="0" columns="5" objectalignment="topleft">
  <image source="../tilesets/TilesetField.png" width="80" height="240"/>
 </tileset>
 <tileset firstgid="1" name="TilesetFloor" tilewidth="16" tileheight="16" tilecount="0" columns="22" objectalignment="topleft">
  <image source="../tilesets/TilesetFloor.png" width="352" height="417"/>
 </tileset>
 <tileset firstgid="268" name="TilesetVillageAbandoned" tilewidth="16" tileheight="16" tilecount="0" columns="20" objectalignment="topleft">
  <image source="../tilesets/TilesetVillageAbandoned.png" width="320" height="192"/>
 </tileset>
 <tileset firstgid="268" name="TilesetHouse" tilewidth="16" tileheight="16" tilecount="0" columns="33" objectalignment="topleft">
  <image source="../tilesets/TilesetHouse.png" width="528" height="368"/>
 </tileset>
 <tileset firstgid="726" name="TilesetWater" tilewidth="16" tileheight="16" tilecount="0" columns="28" objectalignment="topleft">
  <image source="../tilesets/TilesetWater.png" width="448" height="272"/>
 </tileset>
 <tileset firstgid="953" name="TilesetNature" tilewidth="16" tileheight="16" tilecount="0" columns="24" objectalignment="topleft">
  <image source="../tilesets/TilesetNature.png" width="384" height="336"/>
 </tileset>
 <layer id="1" name="Floor" width="16" height="16">
  <data encoding="csv">
265,265,178,178,178,178,178,178,178,178,178,178,178,178,178,178,
265,265,265,265,265,265,265,265,265,177,178,179,265,265,265,265,
265,265,265,266,266,265,265,265,265,177,178,179,267,265,265,265,
265,265,265,266,266,266,266,265,265,177,178,179,267,265,265,265,
265,265,265,266,267,267,266,265,265,177,178,179,267,266,265,265,
156,156,156,156,156,156,156,156,156,178,178,179,266,265,265,265,
178,178,178,178,178,178,178,178,178,178,178,179,266,265,265,265,
178,178,178,178,178,178,178,200,200,200,200,201,265,265,265,265,
265,265,265,265,177,178,179,265,265,265,267,267,267,265,265,265,
265,265,265,265,177,178,179,265,265,265,267,267,267,265,265,265,
265,265,267,265,177,178,179,267,267,267,267,267,265,265,265,265,
265,265,267,267,177,178,179,267,266,265,265,265,265,265,265,265,
265,265,267,267,177,178,179,267,265,265,265,265,265,265,265,265,
265,265,267,265,177,178,179,265,265,265,265,265,265,265,265,265,
265,265,265,265,177,178,178,156,156,156,156,156,156,156,156,156,
265,265,265,265,177,178,178,178,178,178,178,178,178,178,178,178
</data>
 </layer>
 <layer id="2" name="Water" width="16" height="16">
  <data encoding="csv">
0,0,0,0,0,0,0,0,0,0,0,0,0,0,0,0,
0,0,0,0,0,0,0,0,0,0,0,0,0,0,0,0,
0,0,0,0,0,0,0,0,0,0,0,0,0,0,840,840,
0,0,0,0,0,0,0,0,0,0,0,0,840,840,840,840,
0,0,0,0,0,0,0,0,0,0,0,0,840,840,840,840,
0,0,0,0,0,0,0,0,0,0,0,0,894,895,895,896,
0,0,0,0,0,0,0,0,0,0,0,0,922,755,755,924,
0,0,0,0,0,0,0,0,0,0,0,0,922,755,755,924,
0,0,0,0,0,0,0,0,0,0,0,0,922,755,755,924,
894,895,895,896,0,0,0,0,0,0,0,0,950,951,951,952,
922,755,755,924,0,0,0,0,0,0,0,0,0,868,868,868,
922,755,755,924,0,0,0,0,0,0,0,0,0,0,0,0,
950,951,951,952,0,0,0,0,0,0,0,0,0,0,0,0,
0,0,0,0,0,0,0,0,0,0,0,0,0,0,0,0,
0,0,0,0,0,0,0,0,0,0,0,0,0,0,0,0,
0,0,0,0,0,0,0,0,0,0,0,0,0,0,0,0
</data>
 </layer>
 <layer id="3" name="Trees" width="16" height="16">
  <data encoding="csv">
0,1151,1152,0,0,1151,1152,0,0,0,0,0,0,0,0,0,
1378,1175,1176,1202,1202,1175,1176,1151,1152,0,0,0,1187,1006,1007,1202,
1388,1389,1390,1073,1073,1073,1073,1175,1176,0,0,0,1029,1030,1031,1032,
1412,1413,1414,0,0,0,0,953,954,0,0,0,1053,1054,1055,1056,
1436,1437,1438,0,0,0,0,977,978,0,0,0,1202,1277,1202,1187,
1001,0,0,0,0,0,0,0,0,0,0,0,0,0,0,0,
1001,0,0,0,0,0,0,0,0,0,0,0,0,0,0,0,
1151,1152,1151,1152,0,0,0,0,0,0,0,0,0,0,0,0,
1175,1176,1175,1176,0,0,0,1304,1305,1378,1151,1152,0,0,0,0,
0,0,0,0,0,0,0,1328,1329,1187,1175,1176,0,0,0,0,
0,0,0,0,0,0,0,1151,1152,1300,0,0,0,953,954,953,
0,0,0,0,0,0,0,1175,1176,1300,0,0,0,977,978,977,
1388,1389,1390,0,0,0,0,1151,1152,0,0,0,0,953,954,953,
1412,1413,1414,1302,0,0,0,1175,1176,0,0,0,0,977,978,977,
1436,1437,1438,1326,0,0,0,1001,1001,0,0,0,0,0,0,0,
1184,1184,1380,1202,0,0,0,0,0,0,0,0,0,0,0,0
</data>
 </layer>
 <layer id="4" name="House" width="16" height="16">
  <data encoding="csv">
0,0,0,0,0,0,0,0,0,0,0,0,0,0,0,0,
0,0,0,0,0,0,0,0,0,0,0,0,0,0,0,0,
0,0,0,276,277,278,279,0,0,0,0,0,0,0,0,0,
0,0,0,309,310,311,312,0,0,0,0,0,0,0,0,0,
0,0,0,342,343,344,345,0,0,0,0,0,0,0,0,0,
0,0,0,0,0,0,0,0,0,0,0,0,0,0,0,0,
0,0,0,0,0,0,0,0,0,0,0,0,0,0,0,0,
0,0,0,0,0,0,0,0,0,0,0,0,0,0,0,0,
0,0,0,0,0,0,0,0,0,473,473,473,473,0,0,0,
0,0,0,0,0,0,0,0,0,524,525,526,527,0,0,0,
0,0,0,0,0,0,0,0,0,557,558,559,560,0,0,0,
0,0,0,0,0,0,0,0,0,590,591,592,593,0,0,0,
0,0,0,0,0,0,0,0,0,623,624,625,626,0,0,0,
0,0,0,0,0,0,0,0,0,722,723,724,725,0,0,0,
473,0,0,0,0,0,0,0,0,0,0,0,0,0,0,0,
0,0,0,0,0,0,0,0,0,0,0,0,0,0,0,0
</data>
 </layer>
 <objectgroup id="5" name="Entities">
  <object id="1" name="Level_0" type="Portal" x="152" y="0" width="32" height="32">
   <properties>
    <property name="__anchorX" type="int" value="168"/>
    <property name="__anchorY" type="int" value="32"/>
    <property name="__cx" type="int" value="10"/>
    <property name="__cy" type="int" value="1"/>
   </properties>
  </object>
  <object id="2" name="Level_4" type="Portal" x="232" y="224" width="32" height="32">
   <properties>
    <property name="__anchorX" type="int" value="248"/>
    <property name="__anchorY" type="int" value="256"/>
    <property name="__cx" type="int" value="15"/>
    <property name="__cy" type="int" value="15"/>
   </properties>
  </object>
  <object id="3" name="Spawn_point" type="Spawn_point" x="72" y="112" width="32" height="32">
   <properties>
    <property name="__anchorX" type="int" value="88"/>
    <property name="__anchorY" type="int" value="144"/>
    <property name="__cx" type="int" value="5"/>
    <property name="__cy" type="int" value="8"/>
   </properties>
  </object>
 </objectgroup>
</map>
