<?xml version="1.0" encoding="UTF-8"?>
<map version="1.10" tiledversion="1.11.0" orientation="orthogonal" renderorder="right-down" compressionlevel="0" width="16" height="16" tilewidth="16" tileheight="16" infinite="0" backgroundcolor="#696a79" nextlayerid="7" nextobjectid="10">
 <tileset firstgid="1" name="TilesetField" tilewidth="16" tileheight="16" tilecount="75" columns="5" objectalignment="topleft">
  <image source="../tilesets/TilesetField.png" width="80" height="240"/>
 </tileset>
 <tileset firstgid="76" name="TilesetFloor" tilewidth="16" tileheight="16" tilecount="572" columns="22" objectalignment="topleft">
  <image source="../tilesets/TilesetFloor.png" width="352" height="417"/>
 </tileset>
 <tileset firstgid="648" name="TilesetVillageAbandoned" tilewidth="16" tileheight="16" tilecount="240" columns="20" objectalignment="topleft">
  <image source="../tilesets/TilesetVillageAbandoned.png" width="320" height="192"/>
 </tileset>
 <tileset firstgid="888" name="TilesetHouse" tilewidth="16" tileheight="16" tilecount="759" columns="33" objectalignment="topleft">
  <image source="../tilesets/TilesetHouse.png" width="528" height="368"/>
 </tileset>
 <tileset firstgid="1647" name="TilesetWater" tilewidth="16" tileheight="16" tilecount="476" columns="28" objectalignment="topleft">
  <image source="../tilesets/TilesetWater.png" width="448" height="272"/>
 </tileset>
 <tileset firstgid="2123" name="TilesetNature" tilewidth="16" tileheight="16" tilecount="504" columns="24" objectalignment="topleft">
  <image source="../tilesets/TilesetNature.png" width="384" height="336"/>
 </tileset>
 <layer id="1" name="Tiles" width="16" height="16">
  <data encoding="csv">
37,37,37,37,37,37,37,37,37,37,37,37,37,37,37,37,
37,37,37,37,37,37,37,37,37,37,37,37,37,37,37,37,
37,37,37,37,37,37,37,37,37,37,37,37,37,37,37,37,
37,37,37,37,37,37,37,37,37,37,37,37,37,37,37,37,
37,37,37,37,37,37,37,37,37,37,37,37,37,37,37,37,
37,37,37,37,37,37,37,37,37,37,37,37,37,37,37,37,
37,37,37,37,37,37,37,37,37,22,22,37,37,37,37,37,
37,37,37,37,37,37,37,37,37,22,22,22,22,22,37,37,
37,37,37,37,37,37,37,37,37,22,37,37,37,37,37,37,
37,37,37,37,37,37,37,37,37,22,37,37,37,37,37,37,
37,37,37,37,37,37,37,37,37,22,37,37,37,37,37,37,
37,37,37,37,37,37,37,37,37,37,37,37,37,37,37,37,
37,37,37,37,37,37,37,37,37,37,37,37,37,37,37,37,
37,37,22,22,22,37,37,37,37,37,37,37,37,37,37,37,
37,37,22,37,37,37,37,37,37,37,37,37,37,37,37,37,
37,37,22,37,37,37,37,37,37,37,37,37,37,37,37,37
</data>
 </layer>
 <layer id="2" name="Floor" width="16" height="16">
  <data encoding="csv">
340,340,340,340,340,342,340,340,340,340,340,340,340,340,340,340,
340,340,342,342,341,341,321,321,321,321,340,340,340,340,340,340,
340,342,342,342,341,340,321,340,321,321,340,340,340,340,340,340,
340,342,342,340,340,340,340,340,340,340,340,340,340,340,340,340,
340,340,340,340,340,340,340,340,340,340,340,340,340,340,340,340,
321,321,340,340,340,340,340,340,340,340,340,230,231,232,340,340,
231,231,231,231,231,231,231,231,231,231,231,253,253,253,231,231,
275,275,275,275,275,275,253,275,275,253,253,253,253,253,253,253,
340,340,340,340,340,340,340,340,340,252,253,253,275,275,275,275,
340,340,340,340,340,340,340,340,321,252,253,254,340,340,340,340,
342,342,340,340,340,340,340,340,340,252,253,254,340,340,340,340,
342,342,340,340,340,340,340,340,340,252,253,254,340,340,340,340,
342,340,340,340,340,340,340,340,340,252,253,254,340,340,340,340,
340,340,230,231,232,340,340,340,340,252,253,254,340,340,340,340,
341,341,252,253,254,340,340,340,340,252,253,253,231,231,231,231,
340,340,252,253,253,253,253,253,253,253,253,253,253,253,253,253
</data>
 </layer>
 <layer id="3" name="Water" width="16" height="16">
  <data encoding="csv">
0,0,0,0,0,0,0,0,0,0,0,0,0,0,0,0,
0,0,0,0,0,0,0,0,0,0,0,0,0,0,0,0,
0,0,0,0,0,0,0,0,0,0,0,0,0,0,0,0,
0,0,0,0,0,0,0,0,0,0,0,0,0,0,0,0,
0,0,0,0,0,0,0,0,0,0,0,0,1902,0,0,0,
0,0,0,0,0,0,0,0,0,0,1789,1789,0,0,0,0,
0,1760,1760,1760,0,0,0,0,0,1789,1789,1789,1789,1789,1789,1789,
1760,1760,1760,1760,1760,1760,1902,1760,1760,1789,1789,1789,1789,1789,1789,1789,
1955,1955,1955,1955,1955,1955,1955,1955,1955,1789,1789,1789,1760,1760,1760,1760,
1815,1816,1983,1984,1985,1816,1816,1817,1955,1789,1789,1760,1760,1760,1760,1760,
1843,1844,2011,2012,2013,1844,1844,1845,1955,1789,1789,0,0,0,0,0,
1843,1844,2011,2012,2013,1844,1844,1845,1955,1760,0,0,0,0,0,0,
1843,1844,2011,2012,2013,1844,1844,1845,1955,0,0,0,0,0,0,0,
1871,1872,2039,2040,2041,1872,1872,1873,1955,0,0,0,0,1902,0,0,
1788,1788,1929,1929,1929,1788,1788,1788,1788,0,0,0,0,0,0,0,
0,0,1929,1929,1929,0,0,0,0,0,0,0,0,0,0,0
</data>
 </layer>
 <layer id="4" name="Trees" width="16" height="16">
  <data encoding="csv">
2123,2124,2123,2124,2123,2124,2123,2124,2123,2124,2123,2124,2123,2124,2123,2124,
2147,2148,2147,2148,2147,2148,2147,2148,2147,2148,2147,2148,2147,2148,2147,2148,
2123,2124,2123,2124,2123,2124,2123,2124,2123,2124,2123,2124,2123,2124,2123,2124,
2147,2148,2147,2148,2147,2148,2147,2148,2147,2148,2147,2148,2147,2148,2147,2148,
2321,2322,2372,2372,2174,2174,2174,2174,2372,2321,2322,2174,2174,2174,2321,2322,
2345,2346,2171,2171,2174,2174,2174,2174,2372,2345,2346,2174,2174,2174,2345,2346,
2174,2174,2174,2174,2174,2174,2174,2174,2174,2174,2174,2174,2174,2174,2174,2174,
2123,2124,2171,2171,2171,2123,2124,2123,2124,2174,2174,2174,2174,2174,2174,2174,
2147,2148,2171,2171,2171,2147,2148,2147,2148,2174,2174,2174,2123,2124,2123,2124,
2174,2174,2174,2174,2174,2174,2174,2174,2321,2322,2174,2174,2147,2148,2147,2148,
2174,2174,2174,2174,2174,2174,2174,2174,2345,2346,2174,2174,2174,2174,2174,2372,
2174,2174,2174,2174,2174,2174,2171,2174,2372,2174,2174,2174,2174,2174,2174,2372,
2174,2174,2174,2174,2174,2174,2174,2174,2321,2322,2174,2174,2174,2174,2174,2174,
2174,2174,2174,2174,2174,2123,2124,2372,2345,2346,2174,2174,2174,2174,2372,2372,
2321,2322,2174,2174,2174,2147,2148,2174,2174,2174,2174,2174,2174,2174,2174,2174,
2345,2346,2174,2174,2174,2174,2174,2174,2174,2174,2174,2174,2174,2174,2174,2174
</data>
 </layer>
 <layer id="5" name="House" width="16" height="16">
  <data encoding="csv">
0,0,0,0,0,0,0,0,0,0,0,0,0,0,0,0,
0,0,0,0,0,0,0,0,0,0,0,888,889,890,891,0,
0,0,0,0,0,0,0,0,0,0,0,921,922,923,924,0,
0,0,0,0,907,908,909,910,0,0,0,954,955,956,957,0,
0,0,0,0,940,941,942,943,0,0,0,0,0,0,0,0,
0,0,1026,1027,973,974,975,976,0,0,0,0,0,0,0,0,
0,0,0,0,0,0,0,0,0,0,0,0,0,0,0,0,
0,0,1053,1054,1055,0,1595,0,0,0,0,0,0,0,0,0,
0,0,1086,1087,1088,0,0,0,0,0,0,0,0,0,0,0,
0,0,1056,1056,1056,0,0,0,0,0,0,0,0,0,0,0,
0,0,1056,1056,1056,0,0,0,0,0,0,0,904,905,906,0,
0,0,1056,1056,1056,0,0,0,0,1031,0,0,937,938,939,0,
0,0,1056,1056,1056,0,0,0,0,0,0,0,970,971,972,994,
0,0,0,0,0,0,0,0,0,0,0,0,0,0,0,0,
0,0,0,0,0,0,0,1063,1063,1062,0,0,0,0,0,0,
0,0,0,0,0,0,0,0,0,0,0,0,0,0,0,0
</data>
 </layer>
 <objectgroup id="6" name="Entities">
  <object id="5" name="main" type="spawn_point" x="48" y="160">
   <point/>
  </object>
  <object id="6" type="wall" x="80.3985" y="152.203" width="38.2586" height="60.7147"/>
  <object id="9" type="wall" x="9.42603" y="151.371" width="22.1789" height="63.2099"/>
 </objectgroup>
</map>
