<?xml version="1.0" encoding="UTF-8"?>
<map version="1.10" tiledversion="1.11.2" orientation="orthogonal" renderorder="right-down" compressionlevel="0" width="16" height="16" tilewidth="16" tileheight="16" infinite="0" backgroundcolor="#696a79" nextlayerid="6" nextobjectid="8">
 <tileset firstgid="1" name="TilesetField" tilewidth="16" tileheight="16" tilecount="0" columns="5" objectalignment="topleft">
  <image source="../tilesets/TilesetField.png" width="80" height="240"/>
 </tileset>
 <tileset firstgid="1" name="TilesetFloor" tilewidth="16" tileheight="16" tilecount="0" columns="22" objectalignment="topleft">
  <image source="../tilesets/TilesetFloor.png" width="352" height="417"/>
 </tileset>
 <tileset firstgid="266" name="TilesetVillageAbandoned" tilewidth="16" tileheight="16" tilecount="0" columns="20" objectalignment="topleft">
  <image source="../tilesets/TilesetVillageAbandoned.png" width="320" height="192"/>
 </tileset>
 <tileset firstgid="266" name="TilesetHouse" tilewidth="16" tileheight="16" tilecount="0" columns="33" objectalignment="topleft">
  <image source="../tilesets/TilesetHouse.png" width="528" height="368"/>
 </tileset>
 <tileset firstgid="889" name="TilesetWater" tilewidth="16" tileheight="16" tilecount="0" columns="28" objectalignment="topleft">
  <image source="../tilesets/TilesetWater.png" width="448" height="272"/>
 </tileset>
 <tileset firstgid="1200" name="TilesetNature" tilewidth="16" tileheight="16" tilecount="0" columns="24" objectalignment="topleft">
  <image source="../tilesets/TilesetNature.png" width="384" height="336"/>
 </tileset>
 <layer id="1" name="Floor" width="16" height="16">
  <data encoding="csv">
265,265,265,265,265,265,177,178,179,265,265,265,265,265,265,265,
265,265,265,265,265,265,177,178,179,265,265,265,265,265,265,265,
265,265,265,265,265,265,177,178,179,265,265,265,265,265,265,265,
265,265,265,265,265,265,177,178,179,265,265,265,265,265,265,265,
265,265,265,265,265,265,177,178,179,265,265,265,265,265,265,265,
265,265,265,265,265,265,177,178,179,265,265,265,265,265,265,265,
265,265,265,265,265,265,177,178,178,156,156,156,156,156,156,156,
265,265,265,265,265,265,177,178,178,178,178,178,178,178,178,178,
265,265,265,265,265,265,177,178,178,200,200,200,200,200,200,200,
265,265,265,265,265,265,177,178,179,265,265,265,265,265,265,265,
265,265,265,265,265,265,177,178,179,265,265,265,265,265,265,265,
265,265,265,265,265,265,177,178,179,265,265,265,265,265,265,265,
265,265,265,265,265,265,177,178,179,265,265,265,265,265,265,265,
265,265,265,265,265,265,177,178,179,265,265,265,265,265,265,265,
178,178,178,178,178,178,178,178,179,265,265,265,265,265,265,265,
178,178,178,178,178,178,178,178,179,265,265,265,265,265,265,265
</data>
 </layer>
 <layer id="2" name="Water" width="16" height="16">
  <data encoding="csv">
0,0,0,0,0,0,0,0,0,0,0,0,0,0,0,0,
0,0,0,0,0,0,0,0,0,0,0,0,0,0,0,0,
1057,1058,1058,1059,1199,0,0,0,0,0,0,0,0,0,0,0,
1085,918,918,1087,1199,0,0,0,0,0,0,0,0,0,0,0,
1085,918,918,1087,1199,0,0,0,0,0,0,0,0,0,0,0,
1085,918,918,1087,1199,0,0,0,0,0,0,0,0,0,0,0,
1085,918,918,1087,1199,0,0,0,0,0,0,0,0,0,0,0,
1085,918,918,1087,1197,0,0,0,0,0,0,0,0,0,0,0,
1085,918,918,1087,1197,0,0,0,0,0,0,0,0,0,0,0,
1113,1114,1114,1115,1197,0,0,0,0,0,0,0,0,0,0,0,
1197,1197,1197,1197,1197,0,0,0,0,0,0,0,0,0,0,0,
1197,1197,1197,1197,1197,0,0,0,0,0,0,0,0,0,0,0,
1197,1197,1197,1197,0,0,0,0,0,0,0,0,0,0,0,0,
0,0,0,0,0,0,0,0,0,0,0,0,0,0,0,0,
0,0,0,0,0,0,0,0,0,0,0,0,0,0,0,0,
0,0,0,0,0,0,0,0,0,0,0,0,0,0,0,0
</data>
 </layer>
 <layer id="3" name="Trees" width="16" height="16">
  <data encoding="csv">
1200,1201,1200,1201,1200,1201,0,0,0,1200,1201,1449,1449,1449,1449,1625,
1224,1225,1224,1225,1224,1225,0,0,0,1224,1225,1449,1449,1449,1449,1449,
0,0,0,0,1448,1449,0,0,0,1200,1201,1449,1449,1449,1449,1449,
0,0,0,0,1625,1449,0,0,0,1224,1225,1449,1449,1449,0,1449,
0,0,0,0,1448,1449,0,0,0,1449,1647,0,0,0,1200,1625,
0,0,0,0,1448,1625,0,0,0,1625,1449,1449,1647,1647,1449,1449,
0,0,0,0,1200,1201,0,0,0,0,0,0,0,0,0,0,
0,0,0,0,1224,1225,0,0,0,0,0,0,0,0,0,0,
0,0,0,0,1200,1201,0,0,0,0,0,0,0,0,0,0,
0,0,0,0,1224,1225,0,0,0,1200,1201,1200,1201,1449,1449,1449,
1200,1201,1200,1201,1200,1201,0,0,0,1224,1225,1224,1225,1449,1625,1449,
1224,1225,1224,1225,1224,1225,0,0,0,1200,1201,1200,1201,1449,1449,1449,
1200,1201,1200,1201,1200,1201,0,0,0,1224,1225,1224,1225,1449,1449,1449,
1224,1225,1224,1225,1224,1225,0,0,0,1200,1201,1449,1449,1449,1449,1200,
0,0,0,0,0,0,0,0,0,1224,1225,1449,1625,1449,1625,1224,
0,0,0,0,0,0,0,0,0,1398,1399,1398,1399,1449,1449,1398
</data>
 </layer>
 <layer id="4" name="House" width="16" height="16">
  <data encoding="csv">
0,0,0,0,0,0,0,0,0,0,0,753,754,755,756,0,
0,0,0,0,0,0,0,0,0,0,0,786,787,788,789,0,
0,0,0,0,0,0,0,0,0,0,0,819,820,821,822,0,
0,0,0,0,0,0,0,0,0,0,0,852,853,854,855,0,
0,0,0,0,0,0,0,0,0,0,0,885,886,887,888,0,
0,0,0,0,0,0,0,0,0,0,0,0,0,0,0,0,
0,0,0,0,0,0,0,0,0,0,0,0,0,0,0,0,
0,0,0,0,0,0,0,0,0,0,0,0,0,0,0,0,
0,0,0,0,0,0,0,0,0,0,0,0,0,0,0,0,
0,0,0,0,0,0,0,0,0,0,0,0,0,0,0,0,
0,0,0,0,0,0,0,0,0,0,0,0,0,0,0,0,
0,0,0,0,0,0,0,0,0,0,0,0,0,0,0,0,
0,0,0,0,0,0,0,0,0,0,0,0,0,0,0,0,
0,0,0,0,0,0,0,0,0,0,0,0,0,0,0,0,
0,0,0,0,0,0,0,0,0,0,0,0,0,0,0,0,
0,0,0,0,0,0,0,0,0,0,0,0,0,0,0,0
</data>
 </layer>
 <objectgroup id="5" name="Entities">
  <object id="1" name="Level_3" type="Spawn_point" x="21.7801" y="221.095" width="32" height="32">
   <properties>
    <property name="__anchorX" type="int" value="8"/>
    <property name="__anchorY" type="int" value="256"/>
    <property name="__cx" type="int" value="0"/>
    <property name="__cy" type="int" value="15"/>
   </properties>
  </object>
  <object id="2" name="Level_2" type="Portal" x="98" y="-16" width="46" height="32">
   <properties>
    <property name="__anchorX" type="int" value="120"/>
    <property name="__anchorY" type="int" value="16"/>
    <property name="__cx" type="int" value="7"/>
    <property name="__cy" type="int" value="0"/>
   </properties>
  </object>
  <object id="3" name="Level_5" type="Spawn_point" x="200.767" y="97.6317" width="32" height="46">
   <properties>
    <property name="__anchorX" type="int" value="248"/>
    <property name="__anchorY" type="int" value="128"/>
    <property name="__cx" type="int" value="15"/>
    <property name="__cy" type="int" value="7"/>
   </properties>
  </object>
  <object id="4" name="Spawn_point" type="Spawn_point" x="104" y="112" width="32" height="32">
   <properties>
    <property name="__anchorX" type="int" value="120"/>
    <property name="__anchorY" type="int" value="144"/>
    <property name="__cx" type="int" value="7"/>
    <property name="__cy" type="int" value="8"/>
   </properties>
  </object>
  <object id="5" name="Level_5" type="Portal" x="237.494" y="92.4887" width="32" height="46">
   <properties>
    <property name="__anchorX" type="int" value="248"/>
    <property name="__anchorY" type="int" value="128"/>
    <property name="__cx" type="int" value="15"/>
    <property name="__cy" type="int" value="7"/>
   </properties>
  </object>
  <object id="6" name="Level_3" type="Portal" x="-16.7263" y="219.336" width="32" height="32">
   <properties>
    <property name="__anchorX" type="int" value="8"/>
    <property name="__anchorY" type="int" value="256"/>
    <property name="__cx" type="int" value="0"/>
    <property name="__cy" type="int" value="15"/>
   </properties>
  </object>
  <object id="7" name="Level_2" type="Spawn_point" x="97.5731" y="17.4118" width="46" height="32">
   <properties>
    <property name="__anchorX" type="int" value="120"/>
    <property name="__anchorY" type="int" value="16"/>
    <property name="__cx" type="int" value="7"/>
    <property name="__cy" type="int" value="0"/>
   </properties>
  </object>
 </objectgroup>
</map>
