<?xml version="1.0" encoding="UTF-8"?>
<map version="1.10" tiledversion="1.11.0" orientation="orthogonal" renderorder="right-down" compressionlevel="0" width="16" height="16" tilewidth="16" tileheight="16" infinite="0" backgroundcolor="#696a79" nextlayerid="6" nextobjectid="8">
 <tileset firstgid="1" name="TilesetField" tilewidth="16" tileheight="16" tilecount="75" columns="5" objectalignment="topleft">
  <image source="../tilesets/TilesetField.png" width="80" height="240"/>
 </tileset>
 <tileset firstgid="76" name="TilesetFloor" tilewidth="16" tileheight="16" tilecount="572" columns="22" objectalignment="topleft">
  <image source="../tilesets/TilesetFloor.png" width="352" height="417"/>
 </tileset>
 <tileset firstgid="648" name="TilesetVillageAbandoned" tilewidth="16" tileheight="16" tilecount="240" columns="20" objectalignment="topleft">
  <image source="../tilesets/TilesetVillageAbandoned.png" width="320" height="192"/>
 </tileset>
 <tileset firstgid="888" name="TilesetHouse" tilewidth="16" tileheight="16" tilecount="759" columns="33" objectalignment="topleft">
  <image source="../tilesets/TilesetHouse.png" width="528" height="368"/>
 </tileset>
 <tileset firstgid="1647" name="TilesetWater" tilewidth="16" tileheight="16" tilecount="476" columns="28" objectalignment="topleft">
  <image source="../tilesets/TilesetWater.png" width="448" height="272"/>
 </tileset>
 <tileset firstgid="2123" name="TilesetNature" tilewidth="16" tileheight="16" tilecount="504" columns="24" objectalignment="topleft">
  <image source="../tilesets/TilesetNature.png" width="384" height="336"/>
 </tileset>
 <layer id="1" name="Floor" width="16" height="16">
  <data encoding="csv">
252,253,254,340,340,340,340,340,340,340,340,340,340,252,253,254,
252,253,254,340,340,340,340,340,537,340,340,340,340,252,253,254,
252,253,254,340,340,340,340,340,340,340,340,340,340,252,253,254,
252,253,254,340,340,340,340,537,340,340,340,340,340,252,253,254,
252,253,254,340,340,340,340,537,340,340,340,340,340,252,253,254,
252,253,254,340,340,340,340,340,340,340,340,340,340,252,253,254,
253,253,253,231,231,231,231,231,231,231,231,231,231,253,253,254,
253,253,253,253,253,253,253,253,253,253,253,253,253,253,253,254,
275,275,275,275,275,275,275,275,275,275,275,275,275,253,253,254,
340,340,340,340,340,340,340,340,537,537,537,537,537,252,253,254,
340,340,340,340,340,340,340,340,340,340,340,340,537,252,253,254,
340,340,343,343,340,340,340,340,340,340,340,340,537,252,253,254,
340,340,343,343,340,340,340,340,340,340,340,340,537,252,253,254,
340,340,343,343,340,340,340,340,340,340,340,537,537,252,253,254,
340,340,340,340,340,340,340,340,340,340,340,340,537,252,253,254,
340,340,340,340,340,340,340,340,340,340,340,340,537,274,275,276
</data>
 </layer>
 <layer id="2" name="Water" width="16" height="16">
  <data encoding="csv">
0,0,0,0,2121,2112,2112,2112,2112,2112,2112,2112,0,0,0,0,
0,0,0,2121,2121,2121,2121,2121,1673,1674,2121,2121,2121,0,0,0,
0,0,0,2121,2121,2121,2121,2121,2121,2121,2121,2121,2121,0,0,0,
0,0,0,2121,2121,2121,2121,2121,2121,2121,2121,2121,2121,0,0,0,
0,0,0,2121,2121,2121,2121,2121,2121,2121,2121,2121,2121,2121,0,0,
0,0,0,2121,2121,2121,2121,2121,2121,2033,2121,2121,2121,0,0,0,
0,0,0,0,0,0,0,0,0,0,0,0,0,0,0,0,
0,0,0,0,0,0,0,0,0,0,0,0,0,0,0,0,
0,0,0,0,0,0,0,0,0,0,0,0,0,0,0,0,
0,0,0,0,2062,2062,2062,2062,1815,1816,1816,1816,1817,0,0,0,
0,0,2112,2112,2062,2062,2062,2062,1843,1844,1844,1844,1845,0,0,0,
0,2055,2055,2055,2062,2062,2058,2062,1843,1844,1844,1844,1845,0,0,0,
0,0,2055,2062,2062,2062,2062,2062,1843,1844,1844,1844,1845,0,0,0,
0,0,2055,2055,2062,2062,1815,1816,1844,1844,1844,1844,1845,0,0,0,
0,0,2055,2055,2062,2062,1843,1844,1844,1844,1844,1844,1845,0,0,0,
0,0,0,2055,2062,2062,1871,1872,1872,1872,1872,1872,1873,0,0,0
</data>
 </layer>
 <layer id="3" name="Trees" width="16" height="16">
  <data encoding="csv">
0,0,0,2147,2148,2147,2148,2147,2148,2147,2148,2147,2148,0,0,0,
0,0,0,2372,2372,2372,2449,2449,2449,2449,2449,2449,2449,0,0,0,
0,0,0,2449,2449,2449,2449,2449,2449,2449,2449,2449,2449,2449,2449,0,
0,0,2449,2449,2449,2449,2449,2449,2449,2449,2372,2357,2372,2449,2449,0,
0,0,2449,2449,2449,2449,2449,2449,2449,2449,2449,2372,2372,0,0,0,
0,0,2449,2573,2571,2372,2372,2572,2572,2372,2372,2357,2357,0,0,0,
0,0,0,0,0,0,0,0,0,0,0,2449,2449,0,0,0,
0,0,0,0,0,0,0,0,0,0,0,0,0,0,0,0,
0,0,0,0,0,0,0,0,0,0,0,0,0,0,0,0,
2123,2124,2123,2124,2372,2372,2123,2124,0,2398,2398,2398,2398,0,0,0,
2147,2148,2147,2148,2372,2372,2147,2148,0,2398,2398,2398,2398,0,0,0,
2123,2124,2372,2372,2372,2372,2372,2372,0,0,0,0,2398,0,0,0,
2147,2148,2372,2372,2372,2372,2372,2372,0,0,0,0,2398,0,0,0,
2123,2124,2372,2372,2123,2124,0,2397,0,0,0,0,2398,0,0,0,
2147,2148,2372,2372,2147,2148,0,2397,0,0,0,0,2398,0,0,0,
2321,2322,2372,2372,2123,2124,0,0,0,0,0,0,2398,0,0,0
</data>
 </layer>
 <layer id="4" name="House" width="16" height="16">
  <data encoding="csv">
0,0,0,0,0,0,1144,1145,1146,1147,0,0,0,0,0,0,
0,0,0,1580,1580,1580,1177,1178,1179,1180,1481,1481,1481,0,0,0,
0,0,0,1534,1535,1536,1210,1211,1212,1213,1514,1514,1514,0,0,0,
0,0,0,1567,1568,1569,1243,1244,1245,1246,1630,1646,1646,0,0,0,
0,0,0,1600,1601,1602,1342,1343,1344,1345,1503,1646,1646,0,0,0,
0,0,0,0,0,0,0,0,0,0,0,0,0,0,0,0,
0,0,0,0,0,0,0,0,0,0,0,0,0,0,0,0,
0,0,0,0,0,0,0,0,0,0,0,0,0,0,0,0,
0,0,0,0,0,0,0,0,0,0,0,0,0,0,0,0,
0,0,0,0,0,0,0,0,0,0,0,0,0,0,0,0,
0,0,0,0,1646,1646,1646,0,0,0,0,0,0,0,0,0,
0,0,0,0,0,0,0,0,0,0,0,0,0,0,0,0,
0,0,0,0,0,0,0,0,0,0,0,0,0,0,0,0,
0,0,0,0,0,0,0,0,0,0,0,0,0,0,0,0,
0,0,0,0,0,0,0,0,0,0,0,0,0,0,0,0,
0,0,0,0,0,0,0,0,0,0,0,0,0,0,0,0
</data>
 </layer>
 <objectgroup id="5" name="Entities">
  <object id="1" name="Level_1" type="Portal" x="-1.44247" y="-16" width="47.9796" height="32">
   <properties>
    <property name="__anchorX" type="int" value="24"/>
    <property name="__anchorY" type="int" value="16"/>
    <property name="__cx" type="int" value="1"/>
    <property name="__cy" type="int" value="0"/>
    <property name="link" type="int" value="1"/>
   </properties>
  </object>
  <object id="2" name="Level_1" type="Portal" x="208.737" y="-16" width="48.7059" height="32">
   <properties>
    <property name="__anchorX" type="int" value="232"/>
    <property name="__anchorY" type="int" value="16"/>
    <property name="__cx" type="int" value="14"/>
    <property name="__cy" type="int" value="0"/>
    <property name="link" type="int" value="2"/>
   </properties>
  </object>
  <object id="3" name="Level_4" type="Spawn_point" x="24.6855" y="92.821" width="22.5575" height="45.8005">
   <properties>
    <property name="__anchorX" type="int" value="8"/>
    <property name="__anchorY" type="int" value="128"/>
    <property name="__cx" type="int" value="0"/>
    <property name="__cy" type="int" value="7"/>
   </properties>
  </object>
  <object id="4" name="Spawn_point" type="Spawn_point" x="104" y="96" width="32" height="32">
   <properties>
    <property name="__anchorX" type="int" value="120"/>
    <property name="__anchorY" type="int" value="128"/>
    <property name="__cx" type="int" value="7"/>
    <property name="__cy" type="int" value="7"/>
   </properties>
  </object>
  <object id="5" name="Level_1" type="Spawn_point" x="0.53403" y="22.9565" width="47.9796" height="32">
   <properties>
    <property name="__anchorX" type="int" value="24"/>
    <property name="__anchorY" type="int" value="16"/>
    <property name="__cx" type="int" value="1"/>
    <property name="__cy" type="int" value="0"/>
    <property name="link" type="int" value="1"/>
   </properties>
  </object>
  <object id="6" name="Level_1" type="Spawn_point" x="208.44" y="23.2226" width="47.9796" height="32">
   <properties>
    <property name="__anchorX" type="int" value="24"/>
    <property name="__anchorY" type="int" value="16"/>
    <property name="__cx" type="int" value="1"/>
    <property name="__cy" type="int" value="0"/>
    <property name="link" type="int" value="2"/>
   </properties>
  </object>
  <object id="7" name="Level_4" type="Portal" x="-1.83628" y="91.1358" width="22.5575" height="45.8005">
   <properties>
    <property name="__anchorX" type="int" value="8"/>
    <property name="__anchorY" type="int" value="128"/>
    <property name="__cx" type="int" value="0"/>
    <property name="__cy" type="int" value="7"/>
   </properties>
  </object>
 </objectgroup>
</map>
