<?xml version="1.0" encoding="UTF-8"?>
<map version="1.10" tiledversion="1.11.0" orientation="orthogonal" renderorder="right-down" width="20" height="20" tilewidth="32" tileheight="32" infinite="0" nextlayerid="4" nextobjectid="12">
 <tileset firstgid="1" name="base_tileset" tilewidth="32" tileheight="32" tilecount="6" columns="2">
  <image source="../tilesets/base_tileset.png" trans="000000" width="64" height="96"/>
 </tileset>
 <tileset firstgid="7" name="ext_base_tileset" tilewidth="32" tileheight="32" tilecount="2" columns="1">
  <image source="../tilesets/ext_base_tileset.png" trans="000000" width="32" height="64"/>
 </tileset>
 <layer id="1" name="floor" width="20" height="20">
  <data encoding="csv">
1,2,1,2,1,2,1,2,1,2,1,2,1,2,1,2,1,2,1,2,
2,1,2,1,2,1,2,1,2,1,2,1,2,1,2,1,2,1,2,1,
1,2,1,2,7,2,1,2,1,2,1,2,1,2,1,2,7,2,1,2,
2,1,2,7,8,7,8,7,2,1,2,1,2,1,2,1,8,1,2,1,
1,2,1,2,7,2,1,2,1,2,1,2,1,2,1,2,7,2,1,2,
2,1,2,1,8,1,2,1,2,1,2,1,2,1,2,1,2,1,2,1,
1,2,1,2,7,2,1,2,1,2,1,2,1,2,1,2,1,2,1,2,
2,1,2,1,2,1,2,1,2,1,2,1,2,1,2,1,2,1,2,1,
1,2,1,2,1,2,1,2,1,2,3,2,1,2,1,2,1,2,1,2,
2,1,2,1,2,1,2,1,2,3,4,1,2,1,2,1,6,5,2,1,
1,2,1,2,1,2,1,2,1,2,3,2,1,2,1,2,5,6,1,2,
2,1,2,1,2,1,2,1,2,3,4,3,2,1,2,1,2,1,2,1,
1,2,1,2,1,2,1,2,1,2,1,2,1,2,1,2,1,2,1,2,
2,1,2,1,8,1,2,1,2,1,2,1,2,1,2,1,2,1,2,1,
1,2,1,2,7,2,1,2,1,2,1,2,1,2,1,2,1,2,1,2,
2,1,2,1,2,7,8,7,8,1,2,1,2,1,2,1,2,1,2,1,
1,2,1,2,1,2,1,2,1,2,1,2,1,2,1,2,1,2,1,2,
2,1,2,1,2,1,2,1,2,1,2,1,2,1,2,1,2,1,2,1,
1,2,1,2,1,2,1,2,1,2,1,2,1,2,1,2,1,2,1,2,
2,1,2,1,2,1,2,1,2,1,2,1,2,1,2,1,2,1,2,1
</data>
 </layer>
 <objectgroup id="3" name="objects">
  <object id="1" name="spawn_point" x="320" y="320">
   <point/>
  </object>
  <object id="2" name="map_2" type="portal" x="512" y="288" width="64" height="64"/>
  <object id="3" type="wall" x="512" y="64" width="32" height="96"/>
  <object id="7" type="wall" x="128" y="64" width="32" height="160"/>
  <object id="8" type="wall" x="96" y="96" width="32" height="32"/>
  <object id="9" type="wall" x="160" y="96" width="96" height="32"/>
  <object id="10" type="wall" x="128" y="416" width="32" height="64"/>
  <object id="11" type="wall" x="160" y="480" width="128" height="32"/>
 </objectgroup>
</map>
